X: 123
T:MAZURKA DE LANGUEUX
M:3/4
L:1/8
Q:1/4=90
Z:Yves BELOTTEAU
K:C
|ce/2g5/2 z/2 ab/2|e5/2 z/2 d3/2e5/2 z/2 |fg/2c5/2 z/2 c3/2|B3/2Bc/2 de/
2f3/2|
fd/2ef/2 ga/2gf/2|df/2e3/2 c3/2ce/2|g5/2 z/2 ab/2|e5/2 z/2 d3/2e5/2 z/2
|
fg/2c5/2 z/2 c3/2|B3/2Bc/2 de/2f3/2|fd/2ef/2 ga/2gf/2|df/2e3/2 c3/2ce/2|
c3/2c3/2 Gc/2e3/2|dc/2fe/2 d3/2c3/2|Bc/2d3/2 de/2fd/2|e3/2c3/2 Gc/2e3/2|
dc/2fe/2 d3/2c3/2|Bc/2dc/2 de/2fd/2|c3/2c3/2|
W:
W: From "Falaleiro" http://home.t-online.de/home/pheld/homepage.htm
